self_comment.svg

<?xml version="1.0" encoding="utf-8"?>
<!-- Generator: Adobe Illustrator 19.2.1, SVG Export Plug-In . SVG Version: 6.00 Build 0)  -->
<svg version="1.1" id="Layer_1" xmlns="http://www.w3.org/2000/svg" xmlns:xlink="http://www.w3.org/1999/xlink" x="0px" y="0px"
	 viewBox="0 0 48 48" style="enable-background:new 0 0 48 48;" xml:space="preserve">
<style type="text/css">
	.st0{fill:#454545;}
</style>
<path class="st0" d="M40,5H8C5.8,5,4,6.8,4,9v24c0,2.2,1.8,4,4,4h28l8,8V9C44,6.8,42.2,5,40,5z M36,29H12v-4h24V29z M36,23H12v-4h24
	V23z M36,17H12v-4h24V17z"/>
</svg>

<?xml version="1.0" encoding="UTF-8" standalone="no"?><!DOCTYPE svg PUBLIC "-//W3C//DTD SVG 1.1//EN" "http://www.w3.org/Graphics/SVG/1.1/DTD/svg11.dtd"><svg width="100%" height="100%" viewBox="0 0 48 48" version="1.1" xmlns="http://www.w3.org/2000/svg" xmlns:xlink="http://www.w3.org/1999/xlink" xml:space="preserve" style="fill-rule:evenodd;clip-rule:evenodd;stroke-linejoin:round;stroke-miterlimit:1.41421;"><path d="M40,5l-32,0c-2.2,0 -4,1.8 -4,4l0,24c0,2.2 1.8,4 4,4l28,0l8,8l0,-36c0,-2.2 -1.8,-4 -4,-4Zm-4,24l-24,0l0,-4l24,0l0,4Zm0,-6l-24,0l0,-4l24,0l0,4Zm0,-6l-24,0l0,-4l24,0l0,4Z" style="fill:#fff;fill-rule:nonzero;"/></svg>
